X:107
T: El kell menni, ha esik is
M: 2/4
L: 1/4
K: F
gd | d/e/f/e/ | d d | 
dd | c/d/e/d/ | c c | 
Bd | e/d/c/B/ | A A | 
Bd | G/A/B/A/ | G G | 

